catglossop/few-shot-preference-rl/output/block_sac/block_push_sac/goal-0.45_0.35/log.csv
time/steps,time/epochs,time/steps_per_second,time/dataset,time/preprocess,time/train_step,train/env_steps,eval/reward,eval/length,eval/success,eval/TimeLimit.truncated,eval/reward_std,step,train/reward,train/length,train/num_ep,train/q_loss,train/target_q,train/actor_loss,train/entropy,train/alpha_loss,train/alpha
10000,0,10.309853333965153,0.0005022287368774414,3.6835670471191406e-05,0.08307266235351562,9751.5,-14.252028311077114,300.0,0.0,1.0,2.9177512751686265,10000,-18.18738774837864,300.0,32.5,0.000571144814020954,0.3075161728858948,-0.47079551774263384,2.048773666381836,0.40538167041540146,0.08027092193067074
20000,0,10.6482294064968,0.0005822181701660156,4.267692565917969e-05,0.09261512756347656,19751.5,-12.283052491075265,300.0,0.0,1.0,2.333043303578113,20000,-14.725272182036132,300.0,66.0,6.578005036135437e-05,0.38978015452623366,-0.40488336777687073,1.9632318282127381,0.039399986788630485,0.007936287378892303
30000,0,10.6635854172386,0.0006159543991088867,3.695487976074219e-05,0.10945296287536621,29751.5,-11.872192141184183,300.0,0.0,1.0,2.6898797239487524,30000,-9.337049173577155,300.0,99.5,0.00025191111376625483,-0.5130434040427208,0.5086204458475113,-1.0824832537174225,0.0019496612842194736,0.0010144300512038172
40000,0,9.69313307382178,0.0006463527679443359,3.921985626220703e-05,0.10335075855255127,39751.5,-10.096336843636978,300.0,0.3333333333333333,1.0,4.6966907507905375,40000,-11.287818524086424,300.0,132.5,0.0005399653323111124,-1.1028648121356963,1.0956273424625396,-3.040086524963379,-4.957658336206805e-05,0.0012496656065341086
50000,0,10.780193163358783,0.0008385181427001953,4.0531158447265625e-05,0.089485764503479,49751.5,-9.023860500613479,300.0,0.0,1.0,1.9452534337149934,50000,-6.95265602658508,300.0,166.0,0.0019122759175952523,-1.30590958070755,1.2848476376533509,-3.026459643363953,-4.523137052092352e-05,0.0017296765111386777
60000,0,12.08160647150174,0.0006349086761474609,3.921985626220703e-05,0.08279383182525635,59751.5,-10.519588621575668,300.0,0.0,1.0,1.8247930976155569,60000,-8.987539200461866,300.0,199.5,0.003223220025654882,-1.1413346573114396,1.1195215089321136,-2.943021502971649,0.00011543236777652054,0.0020092575862072407
70000,0,12.428935952941876,0.0006881952285766602,3.6835670471191406e-05,0.08014380931854248,69751.5,-11.59326047809176,300.0,0.0,1.0,2.5208537486893596,70000,-10.23019865528013,300.0,232.5,0.0022145940186455845,-1.0907851519584655,1.071641462445259,-3.0147159070968628,-2.712600874110649e-05,0.001855386127019301
80000,0,12.747057077707113,0.0006453990936279297,3.6835670471191406e-05,0.09616804122924805,79751.5,-11.034501539035356,300.0,0.0,1.0,3.951893802734439,80000,-11.020199880750356,300.0,266.0,0.001336869116872549,-1.271659812927246,1.2576984107494353,-3.0000217719078064,6.071964162401855e-08,0.0012675211881287396
90000,0,9.872635938697417,0.0005956888198852539,3.719329833984375e-05,0.10270428657531738,89751.5,-7.57601578741256,300.0,0.0,1.0,3.131169401271722,90000,-8.108286206803797,300.0,299.5,0.000999338420224376,-1.3837693569660188,1.3672683589458465,-3.011267803668976,-1.5836424068766064e-05,0.00141386616230011
100000,0,11.15302620749389,0.0006811618804931641,4.279613494873047e-05,0.0896763801574707,99751.5,-5.934778902959699,300.0,0.0,1.0,2.5737113748596783,100000,-3.7202996710520657,300.0,332.5,0.0009216024583438412,-1.379231429338455,1.3599459145069122,-2.9952126808166506,6.897163195390022e-06,0.0014217652336228639
110000,0,11.314140830407565,0.0006997585296630859,3.921985626220703e-05,0.10370492935180664,109751.5,-5.151642703188118,300.0,0.0,1.0,2.647452923267468,110000,-2.219847148144732,300.0,366.0,0.0008404574011219666,-1.2782534906864167,1.260052812576294,-3.0083847670555115,-9.22943537170795e-06,0.001104937177617103
120000,0,10.088684462152932,0.0016722679138183594,3.9458274841308594e-05,0.08943629264831543,119751.5,-3.6065647930071463,300.0,0.0,1.0,1.424339875529351,120000,-3.2774922687199664,300.0,399.5,0.000734200811595656,-1.2269092636108399,1.2108994760513305,-2.963442662239075,3.689893230330199e-05,0.0010027271457947792
130000,0,11.254646196501808,0.0006158351898193359,3.635883331298828e-05,0.08812475204467773,129751.5,-3.480354740436967,300.0,0.0,1.0,1.355966789939701,130000,-2.7108959368871806,300.0,432.5,0.0006841973994742148,-1.2032141122817994,1.188274733543396,-2.9768013319969175,2.0943771579368332e-05,0.0009018143989378587
140000,0,9.699604306565629,0.0015670061111450195,3.921985626220703e-05,0.1005011796951294,139751.5,-2.4647571418761136,300.0,0.3333333333333333,1.0,0.6278859911726482,140000,-2.2620392218923646,300.0,466.0,0.0006176858336548321,-1.1573279185295104,1.1416856191158296,-3.0290890522003173,-2.6346324427322543e-05,0.0009059200689662248
150000,0,10.265329952275648,0.0006178617477416992,3.910064697265625e-05,0.09270131587982178,149751.5,-3.440240448777893,300.0,0.3333333333333333,1.0,3.5557005276815254,150000,-3.0378533395056992,300.0,499.5,0.0005812950769322925,-1.0979520316123963,1.0825963854789733,-2.972458113193512,2.4002396295145444e-05,0.0008685519417049363
160000,0,10.079315871202985,0.0006146430969238281,3.528594970703125e-05,0.10772156715393066,159751.5,-2.9432130862215495,300.0,0.3333333333333333,1.0,1.7583428270494608,160000,-2.3980188710638983,300.0,532.5,0.0005377400780562312,-1.0473800770044326,1.0332336655855179,-2.991615005493164,6.1726630301564e-06,0.0007324113167123869
170000,0,10.197302182931963,0.0006196498870849609,3.6835670471191406e-05,0.10917818546295166,169751.5,-2.3144898967667515,300.0,0.3333333333333333,1.0,0.45199724245857764,170000,-2.8992596375082065,300.0,566.0,0.0004954568098764866,-1.010334772706032,0.9969730330705643,-2.9954056367874147,3.1739091809868112e-06,0.000684630535193719
180000,0,9.967164920669827,0.0005682706832885742,3.910064697265625e-05,0.10313796997070312,179751.5,-2.4413027171545907,300.0,0.4666666666666667,1.0,0.8519735612124635,180000,-6.498123166052178,300.0,599.5,0.0005021144025959075,-0.9794155707359314,0.9666765933036804,-2.992212192058563,5.173908879442024e-06,0.000661271222634241
190000,0,9.310752362593112,0.0006140470504760742,4.029273986816406e-05,0.11126041412353516,189751.5,-2.126288959672927,300.0,0.9333333333333333,1.0,0.6024800656559224,190000,-1.767830463212951,300.0,632.5,0.00047759448125725613,-0.9513071612119675,0.9398205925226212,-2.9651842155456545,2.2205571616723317e-05,0.0006393939553527161
200000,0,10.117219538027303,0.0007544755935668945,3.9577484130859375e-05,0.10177719593048096,199751.5,-1.9585542459797796,300.0,1.0,1.0,0.44418227000378013,200000,-1.66495196739128,300.0,666.0,0.0004953624387853779,-0.923837338924408,0.9118791987895966,-3.0134389624595643,-8.093914261280588e-06,0.0006010840660892427
210000,0,9.615802747805578,0.0006281137466430664,3.826618194580078e-05,0.09207355976104736,209751.5,-2.1173776697794437,300.0,0.6,1.0,0.5510985685735261,210000,-2.0150695542555086,300.0,699.5,0.00046135834557935597,-0.894242508649826,0.8828923337459564,-2.996348054885864,2.1425722934509394e-06,0.000580749673419632
